X: 18965
T: Iniscealtra
R: reel
M: 4/4
K: Dmajor
D2FA BAFA|defd Bee2|d3B A2FA|BGEF GEFE|
D2FA BAFA|defd e2fg|agfg e2dB|1 ABde fdd2:|2 ABde fddc||
d2fd Adfa|bgef g2fe|d3B A2FA|BA (3Bcd egfe|
d2fd Adfa|bgef g2ag|f2df eBdB|1 ABde fddc:|2 ABde fdd2||

